(Created with emc2b post processor 2015/07/25 19:44)
G61
(tool change to 6 mm Fraise de Finition)
T7 M06 G43
G17 G90 G21
G00 X-62.08 Y-32.097 S7000 M03
Z20 
G83 Q3.5 G98 X-62.08 Y-32.097 Z-1 R1 F20 
X60 Y30  
G80
(Esquisse 0)
G00 X-0.353 Y57.353 S7000 M03
Z1 
G01 Z-3.333  
G02 X0 Y57.5 I0.353 J-0.353 F250 
X0.5 Y57 I0 J-0.5  
X0 Y56.5 I-0.5 J0  
X-0.5 Y57 I0 J0.5  
X-0.353 Y57.353 I0.5 J0  
G01 Z-6.666 F20 
G02 X0 Y57.5 I0.353 J-0.353 F250 
X0.5 Y57 I0 J-0.5  
X0 Y56.5 I-0.5 J0  
X-0.5 Y57 I0 J0.5  
X-0.353 Y57.353 I0.5 J0  
G01 Z-10 F20 
G02 X0 Y57.5 I0.353 J-0.353 F250 
X0.5 Y57 I0 J-0.5  
X0 Y56.5 I-0.5 J0  
X-0.5 Y57 I0 J0.5  
X-0.353 Y57.353 I0.5 J0  
G00 Z20 
(Esquisse 0)
G90 X-50.613 Y25.875 
Z1 
G01 Z-3.333 F20 
G02 X-50.466 Y25.522 I-0.353 J-0.353 F250 
X-50.966 Y25.022 I-0.5 J0  
X-51.466 Y25.522 I0 J0.5  
X-50.966 Y26.022 I0.5 J0  
X-50.613 Y25.875 I0 J-0.5  
G01 Z-6.666 F20 
G02 X-50.466 Y25.522 I-0.353 J-0.353 F250 
X-50.966 Y25.022 I-0.5 J0  
X-51.466 Y25.522 I0 J0.5  
X-50.966 Y26.022 I0.5 J0  
X-50.613 Y25.875 I0 J-0.5  
G01 Z-10 F20 
G02 X-50.466 Y25.522 I-0.353 J-0.353 F250 
X-50.966 Y25.022 I-0.5 J0  
X-51.466 Y25.522 I0 J0.5  
X-50.966 Y26.022 I0.5 J0  
X-50.613 Y25.875 I0 J-0.5  
G00 Z20 
(Esquisse 0)
G90 X-48.142 Y-29.598 
Z1 
G01 Z-3.333 F20 
G02 X-47.996 Y-29.951 I-0.353 J-0.353 F250 
X-48.496 Y-30.451 I-0.5 J0  
X-48.996 Y-29.951 I0 J0.5  
X-48.496 Y-29.451 I0.5 J0  
X-48.142 Y-29.598 I0 J-0.5  
G01 Z-6.666 F20 
G02 X-47.996 Y-29.951 I-0.353 J-0.353 F250 
X-48.496 Y-30.451 I-0.5 J0  
X-48.996 Y-29.951 I0 J0.5  
X-48.496 Y-29.451 I0.5 J0  
X-48.142 Y-29.598 I0 J-0.5  
G01 Z-10 F20 
G02 X-47.996 Y-29.951 I-0.353 J-0.353 F250 
X-48.496 Y-30.451 I-0.5 J0  
X-48.996 Y-29.951 I0 J0.5  
X-48.496 Y-29.451 I0.5 J0  
X-48.142 Y-29.598 I0 J-0.5  
G00 Z20 
(Esquisse 0)
G90 X0.353 Y-57.353 
Z1 
G01 Z-3.333 F20 
G02 X0 Y-57.5 I-0.353 J0.353 F250 
X-0.5 Y-57 I0 J0.5  
X0 Y-56.5 I0.5 J0  
X0.5 Y-57 I0 J-0.5  
X0.353 Y-57.353 I-0.5 J0  
G01 Z-6.666 F20 
G02 X0 Y-57.5 I-0.353 J0.353 F250 
X-0.5 Y-57 I0 J0.5  
X0 Y-56.5 I0.5 J0  
X0.5 Y-57 I0 J-0.5  
X0.353 Y-57.353 I-0.5 J0  
G01 Z-10 F20 
G02 X0 Y-57.5 I-0.353 J0.353 F250 
X-0.5 Y-57 I0 J0.5  
X0 Y-56.5 I0.5 J0  
X0.5 Y-57 I0 J-0.5  
X0.353 Y-57.353 I-0.5 J0  
G00 Z20 
(Esquisse 0)
G90 X51.32 Y-25.168 
Z1 
G01 Z-3.333 F20 
G02 X51.466 Y-25.522 I-0.353 J-0.353 F250 
X50.966 Y-26.022 I-0.5 J0  
X50.466 Y-25.522 I0 J0.5  
X50.966 Y-25.022 I0.5 J0  
X51.32 Y-25.168 I0 J-0.5  
G01 Z-6.666 F20 
G02 X51.466 Y-25.522 I-0.353 J-0.353 F250 
X50.966 Y-26.022 I-0.5 J0  
X50.466 Y-25.522 I0 J0.5  
X50.966 Y-25.022 I0.5 J0  
X51.32 Y-25.168 I0 J-0.5  
G01 Z-10 F20 
G02 X51.466 Y-25.522 I-0.353 J-0.353 F250 
X50.966 Y-26.022 I-0.5 J0  
X50.466 Y-25.522 I0 J0.5  
X50.966 Y-25.022 I0.5 J0  
X51.32 Y-25.168 I0 J-0.5  
G00 Z20 
(Esquisse 0)
G90 X48.849 Y30.305 
Z1 
G01 Z-3.333 F20 
G02 X48.996 Y29.951 I-0.353 J-0.353 F250 
X48.496 Y29.451 I-0.5 J0  
X47.996 Y29.951 I0 J0.5  
X48.496 Y30.451 I0.5 J0  
X48.849 Y30.305 I0 J-0.5  
G01 Z-6.666 F20 
G02 X48.996 Y29.951 I-0.353 J-0.353 F250 
X48.496 Y29.451 I-0.5 J0  
X47.996 Y29.951 I0 J0.5  
X48.496 Y30.451 I0.5 J0  
X48.849 Y30.305 I0 J-0.5  
G01 Z-10 F20 
G02 X48.996 Y29.951 I-0.353 J-0.353 F250 
X48.496 Y29.451 I-0.5 J0  
X47.996 Y29.951 I0 J0.5  
X48.496 Y30.451 I0.5 J0  
X48.849 Y30.305 I0 J-0.5  
G00 Z20 
G90
(ENTITIES 0)
X-16.5 Y53.477 S7000 M03
Z1 
G01 Z-3.333 F20 
X-16.5 Y29.954 F250 
G02 X-19.395 Y28.165 I-2 J0  
G01 X-61.461 Y49.23  
G03 X-65.487 Y47.891 I-1.343 J-2.682  
G01 X-77.577 Y23.749  
G03 X-76.237 Y19.723 I2.682 J-1.343  
G01 X-37.046 Y0.098  
G02 X-36.891 Y-3.391 I-0.895 J-1.788  
G01 X-74.182 Y-26.422  
G03 X-75.158 Y-30.551 I1.576 J-2.552  
G01 X-60.971 Y-53.523  
G03 X-56.842 Y-54.499 I2.552 J1.576  
G01 X-19.55 Y-31.468  
G02 X-16.5 Y-33.169 I1.05 J-1.701  
G01 X-16.5 Y-77  
G03 X-13.5 Y-80 I3 J0  
G01 X13.5 Y-80  
G03 X16.5 Y-77 I0 J3  
G01 X16.5 Y-29.954  
G02 X19.395 Y-28.165 I2 J0  
G01 X61.461 Y-49.23  
G03 X65.487 Y-47.891 I1.343 J2.682  
G01 X77.577 Y-23.749  
G03 X76.237 Y-19.723 I-2.682 J1.343  
G01 X37.046 Y-0.098  
G02 X36.891 Y3.391 I0.895 J1.788  
G01 X74.182 Y26.422  
G03 X75.158 Y30.551 I-1.576 J2.552  
G01 X60.971 Y53.523  
G03 X56.842 Y54.499 I-2.552 J-1.576  
G01 X19.55 Y31.468  
G02 X16.5 Y33.169 I-1.05 J1.701  
G01 X16.5 Y77  
G03 X13.5 Y80 I-3 J0  
G01 X-13.5 Y80  
G03 X-16.5 Y77 I0 J-3  
G01 X-16.5 Y53.477  
Z-6.666 F20 
X-16.5 Y29.954 F250 
G02 X-19.395 Y28.165 I-2 J0  
G01 X-61.461 Y49.23  
G03 X-65.487 Y47.891 I-1.343 J-2.682  
G01 X-77.577 Y23.749  
G03 X-76.237 Y19.723 I2.682 J-1.343  
G01 X-37.046 Y0.098  
G02 X-36.891 Y-3.391 I-0.895 J-1.788  
G01 X-74.182 Y-26.422  
G03 X-75.158 Y-30.551 I1.576 J-2.552  
G01 X-60.971 Y-53.523  
G03 X-56.842 Y-54.499 I2.552 J1.576  
G01 X-19.55 Y-31.468  
G02 X-16.5 Y-33.169 I1.05 J-1.701  
G01 X-16.5 Y-77  
G03 X-13.5 Y-80 I3 J0  
G01 X13.5 Y-80  
G03 X16.5 Y-77 I0 J3  
G01 X16.5 Y-29.954  
G02 X19.395 Y-28.165 I2 J0  
G01 X61.461 Y-49.23  
G03 X65.487 Y-47.891 I1.343 J2.682  
G01 X77.577 Y-23.749  
G03 X76.237 Y-19.723 I-2.682 J1.343  
G01 X37.046 Y-0.098  
G02 X36.891 Y3.391 I0.895 J1.788  
G01 X74.182 Y26.422  
G03 X75.158 Y30.551 I-1.576 J2.552  
G01 X60.971 Y53.523  
G03 X56.842 Y54.499 I-2.552 J-1.576  
G01 X19.55 Y31.468  
G02 X16.5 Y33.169 I-1.05 J1.701  
G01 X16.5 Y77  
G03 X13.5 Y80 I-3 J0  
G01 X-13.5 Y80  
G03 X-16.5 Y77 I0 J-3  
G01 X-16.5 Y53.477  
Z-10 F20 
X-16.5 Y29.954 F250 
G02 X-19.395 Y28.165 I-2 J0  
G01 X-61.461 Y49.23  
G03 X-65.487 Y47.891 I-1.343 J-2.682  
G01 X-77.577 Y23.749  
G03 X-76.237 Y19.723 I2.682 J-1.343  
G01 X-37.046 Y0.098  
G02 X-36.891 Y-3.391 I-0.895 J-1.788  
G01 X-74.182 Y-26.422  
G03 X-75.158 Y-30.551 I1.576 J-2.552  
G01 X-60.971 Y-53.523  
G03 X-56.842 Y-54.499 I2.552 J1.576  
G01 X-19.55 Y-31.468  
G02 X-16.5 Y-33.169 I1.05 J-1.701  
G01 X-16.5 Y-77  
G03 X-13.5 Y-80 I3 J0  
G01 X13.5 Y-80  
G03 X16.5 Y-77 I0 J3  
G01 X16.5 Y-29.954  
G02 X19.395 Y-28.165 I2 J0  
G01 X61.461 Y-49.23  
G03 X65.487 Y-47.891 I1.343 J2.682  
G01 X77.577 Y-23.749  
G03 X76.237 Y-19.723 I-2.682 J1.343  
G01 X37.046 Y-0.098  
G02 X36.891 Y3.391 I0.895 J1.788  
G01 X74.182 Y26.422  
G03 X75.158 Y30.551 I-1.576 J2.552  
G01 X60.971 Y53.523  
G03 X56.842 Y54.499 I-2.552 J-1.576  
G01 X19.55 Y31.468  
G02 X16.5 Y33.169 I-1.05 J1.701  
G01 X16.5 Y77  
G03 X13.5 Y80 I-3 J0  
G01 X-13.5 Y80  
G03 X-16.5 Y77 I0 J-3  
G01 X-16.5 Y53.477  
G00 Z20 
T0 M06 M02
